src/assets/outline/VideoOctagon.svg

<svg width="24" height="24" viewBox="0 0 24 24"  xmlns="http://www.w3.org/2000/svg">
<path d="M12.0002 22.7501C11.3302 22.7501 10.6501 22.5801 10.0501 22.2301L4.11014 18.8001C2.91014 18.1001 2.16016 16.8101 2.16016 15.4201V8.58011C2.16016 7.19011 2.91014 5.90011 4.11014 5.20011L10.0501 1.77012C11.2501 1.07012 12.7402 1.07012 13.9502 1.77012L19.8902 5.20011C21.0902 5.90011 21.8401 7.19011 21.8401 8.58011V15.4201C21.8401 16.8101 21.0902 18.1001 19.8902 18.8001L13.9502 22.2301C13.3502 22.5801 12.6702 22.7501 12.0002 22.7501ZM12.0002 2.7501C11.5902 2.7501 11.1701 2.8601 10.8001 3.0701L4.86014 6.5001C4.12014 6.9301 3.66016 7.72011 3.66016 8.58011V15.4201C3.66016 16.2701 4.12014 17.0701 4.86014 17.5001L10.8001 20.9301C11.5401 21.3601 12.4602 21.3601 13.2002 20.9301L19.1402 17.5001C19.8802 17.0701 20.3401 16.2801 20.3401 15.4201V8.58011C20.3401 7.73011 19.8802 6.9301 19.1402 6.5001L13.2002 3.0701C12.8302 2.8601 12.4102 2.7501 12.0002 2.7501Z" />
<path d="M11.0902 15.67C10.7302 15.67 10.3902 15.58 10.0802 15.41C9.39023 15.01 8.99023 14.2 8.99023 13.19V10.79C8.99023 9.78002 9.39023 8.97005 10.0802 8.57005C10.7702 8.17005 11.6703 8.23004 12.5403 8.74004L14.6202 9.94005C15.4902 10.44 16.0002 11.19 16.0002 11.99C16.0002 12.79 15.5002 13.53 14.6202 14.04L12.5403 15.24C12.0603 15.53 11.5602 15.67 11.0902 15.67ZM11.1003 9.82005C11.0003 9.82005 10.9102 9.84005 10.8402 9.88005C10.6302 10.0001 10.5002 10.34 10.5002 10.8V13.2001C10.5002 13.6501 10.6302 13.99 10.8402 14.12C11.0502 14.24 11.4102 14.1801 11.8002 13.9501L13.8802 12.75C14.2702 12.52 14.5002 12.24 14.5002 12C14.5002 11.76 14.2702 11.48 13.8802 11.25L11.8002 10.05C11.5402 9.90003 11.2903 9.82005 11.1003 9.82005Z" />
</svg>

<?xml version="1.0" encoding="UTF-8"?>
<svg width="24" height="24" viewBox="0 0 24 24" xmlns="http://www.w3.org/2000/svg">
 <path d="m12 22.75c-0.67 0-1.3501-0.17-1.9501-0.52l-5.94-3.43c-1.2-0.7-1.95-1.99-1.95-3.38v-6.84c0-1.39 0.74998-2.68 1.95-3.38l5.94-3.43c1.2-0.7 2.6901-0.7 3.9001 0l5.94 3.43c1.2 0.7 1.9499 1.99 1.9499 3.38v6.84c0 1.39-0.7499 2.68-1.9499 3.38l-5.94 3.43c-0.6 0.35-1.28 0.52-1.95 0.52zm0-20c-0.41 0-0.8301 0.11-1.2001 0.32l-5.94 3.43c-0.74 0.43-1.2 1.22-1.2 2.08v6.84c0 0.85 0.45998 1.65 1.2 2.08l5.94 3.43c0.74 0.43 1.6601 0.43 2.4001 0l5.94-3.43c0.74-0.43 1.1999-1.22 1.1999-2.08v-6.84c0-0.85-0.4599-1.65-1.1999-2.08l-5.94-3.43c-0.37-0.21-0.79-0.32-1.2-0.32z"/>
 <path d="m11.09 15.67c-0.36 0-0.7-0.09-1.01-0.26-0.68997-0.4-1.09-1.21-1.09-2.22v-2.4c0-1.01 0.4-1.82 1.09-2.22 0.69-0.4 1.5901-0.34001 2.4601 0.16999l2.0799 1.2c0.87 0.49995 1.38 1.25 1.38 2.05s-0.5 1.54-1.38 2.05l-2.0799 1.2c-0.48 0.29-0.9801 0.43-1.4501 0.43zm0.0101-5.85c-0.1 0-0.1901 0.02-0.2601 0.06-0.21 0.12005-0.34 0.45995-0.34 0.91995v2.4001c0 0.45 0.13 0.7899 0.34 0.9199 0.21 0.12 0.57 0.0601 0.96-0.1699l2.08-1.2001c0.39-0.23 0.62-0.51 0.62-0.75s-0.23-0.52-0.62-0.75l-2.08-1.2c-0.26-0.14997-0.5099-0.22995-0.6999-0.22995z"/>
</svg>
